X: 3948
T: Blackbird, The
R: reel
M: 4/4
K: Dmajor
a2g2|:f~B2A Bfaf|gfed cdeg|f~B2ABfaf|1 gfeg f ~B2g:|2 gfeg f ~B2e||
|:fdBd fdBd|fdBd ecAc|fdBd fdfg|1 fedc d~B2e:|2 fedc dBB2||

